assets/img/braze_icons/message-notification-square.svg

<svg fill="none" height="24" viewBox="0 0 24 24" width="24" xmlns="http://www.w3.org/2000/svg"><g fill="#801ed7"><path d="m21.1213 2.87868c1.1716 1.17157 1.1716 3.07107 0 4.24264s-3.071 1.17157-4.2426 0-1.1716-3.07107 0-4.24264 3.071-1.17157 4.2426 0z"/><path d="m22.0001 10.6031c0-.5227 0-.78412-.0785-.90713-.0808-.12659-.1542-.17953-.2999-.21605-.1415-.03549-.4391.06386-1.0343.26257-1.7405.58111-3.7372.17876-5.1229-1.20696-1.3857-1.38569-1.7881-3.38237-1.207-5.12286.1987-.59516.298-.89275.2625-1.03428-.0365-.14566-.0894-.21914-.216-.29991-.123-.07848-.3844-.07848-.9071-.07848h-5.6381c-.80497-.00001-1.46934-.00002-2.01053.04419-.5621.04593-1.0788.14449-1.56414.39179-.75264.38349-1.36457.99541-1.74806 1.74806-.24729.48533-.34585 1.00204-.39178 1.56414-.04422.54119-.04421 1.20555-.04419 2.01052l-.00005 6.3789c-.00043.7954-.00075 1.386.13634 1.8977.36987 1.3803 1.44806 2.4585 2.82843 2.8284.30747.0824.64347.1152 1.03528.1281l-.00001 1.3792c-.00004.2352-.00009.475.01776.6715.01707.188.06227.5427.30993.853.28498.357.71712.5647 1.17394.5642.39698-.0004.70222-.1867.85965-.2908.1646-.1089.35183-.2587.53551-.4057l2.41312-1.9305c.5186-.4149.6726-.532.8325-.6137.1605-.082.3313-.1419.5079-.1782.1759-.0361.3693-.0408 1.0334-.0408h2.5576c.805 0 1.4693 0 2.0105-.0442.5621-.0459 1.0788-.1445 1.5642-.3918.7526-.3835 1.3645-.9954 1.748-1.748.2473-.4854.3459-1.0021.3918-1.5642.0442-.5412.0442-1.2055.0442-2.0105z"/></g></svg>

<svg width="24" height="24" viewBox="0 0 24 24" fill="none" xmlns="http://www.w3.org/2000/svg">
<path d="M21.1213 2.87868C22.2929 4.05025 22.2929 5.94975 21.1213 7.12132C19.9497 8.29289 18.0503 8.29289 16.8787 7.12132C15.7071 5.94975 15.7071 4.05025 16.8787 2.87868C18.0503 1.70711 19.9497 1.70711 21.1213 2.87868Z" fill="#801ED7"/>
<path d="M22.0001 10.6031C22.0001 10.0804 22.0001 9.81898 21.9216 9.69597C21.8408 9.56938 21.7674 9.51644 21.6217 9.47992C21.4802 9.44443 21.1826 9.54378 20.5874 9.74249C18.8469 10.3236 16.8502 9.92125 15.4645 8.53553C14.0788 7.14984 13.6764 5.15316 14.2575 3.41267C14.4562 2.81751 14.5555 2.51992 14.52 2.37839C14.4835 2.23273 14.4306 2.15925 14.304 2.07848C14.181 2 13.9196 2 13.3969 2H7.7588C6.95383 1.99999 6.28946 1.99998 5.74827 2.04419C5.18617 2.09012 4.66947 2.18868 4.18413 2.43598C3.43149 2.81947 2.81956 3.43139 2.43607 4.18404C2.18878 4.66937 2.09022 5.18608 2.04429 5.74818C2.00007 6.28937 2.00008 6.95373 2.0001 7.7587L2.00005 14.1376C1.99962 14.933 1.9993 15.5236 2.13639 16.0353C2.50626 17.4156 3.58445 18.4938 4.96482 18.8637C5.27229 18.9461 5.60829 18.9789 6.0001 18.9918L6.00009 20.371C6.00005 20.6062 6 20.846 6.01785 21.0425C6.03492 21.2305 6.08012 21.5852 6.32778 21.8955C6.61276 22.2525 7.0449 22.4602 7.50172 22.4597C7.8987 22.4593 8.20394 22.273 8.36137 22.1689C8.52597 22.06 8.7132 21.9102 8.89688 21.7632L11.31 19.8327C11.8286 19.4178 11.9826 19.3007 12.1425 19.219C12.303 19.137 12.4738 19.0771 12.6504 19.0408C12.8263 19.0047 13.0197 19 13.6838 19H16.2414C17.0464 19 17.7107 19 18.2519 18.9558C18.814 18.9099 19.3307 18.8113 19.8161 18.564C20.5687 18.1805 21.1806 17.5686 21.5641 16.816C21.8114 16.3306 21.91 15.8139 21.9559 15.2518C22.0001 14.7106 22.0001 14.0463 22.0001 13.2413V10.6031Z" fill="#801ED7"/>
</svg>
